X:1
T:In the Happy By and By
T:In the Happy By and By
T:Montgomery Elgar Belue
T:Marion Clyde, 1913
T:Public Domain Courtesy of the Cyber Hymnal™
T:Public Domain Courtesy of the Cyber Hymnal™
C:Montgomery Elgar Belue
Z:Public Domain
Z:Courtesy of the Cyber Hymnal™
%%score ( 1 2 ) ( 3 4 )
L:1/8
Q:1/4=95
M:4/4
K:G
V:1 treble 
V:2 treble 
V:3 bass 
V:4 bass 
V:1
 BB | G4- [DG]D[DG][DA] | [GB] ([Gd-] d4) dd | d4- [Gd][Gd][GB]G | A6 BB | G4- [DG]D[DG][DA] | %6
w: 1.~There’s a|ci- ty, bright and glor-|ious, Far * be- yond|the az- ure sky, Where|with Christ we’ll|dwell vic- tor- ious, In|
w: 2.~Earth- ly|ties and hopes are blight-|ed By * the sum-|mons from on high, But|we shall be|re- u- nit- ed In|
w: 3.~Sin and|death can en- ter ne-|ver, Not * a sor-|row or a sigh; Joy|shall be our|por- tion ev- er In|
w: 4.~End- less|prais- es there are ring-|ing Christ * the Lord|to glor- i- fy, And|we’ll join the|an- gels sing- ing In|
 [GB] ([Gd-] d4) dB | A4- [FA][FB]G[FA] | G6 ||"^Refrain" GB | d4- [Gd][Gd][Gd][Gd] | %11
w: the hap- * py by|and by. * * *||||
w: the hap- * py by|and by. Peace we’ll share|be-|yond all|mea- sure, Where no tears|
w: the hap- * py by|and by. * * *||||
w: the hap- * py by|and by. * * *||||
 [GB] ([GB-] B4) BB | B4- [GB][Gd][GB]G | A6 GB | d4- [Gd][Gd][Gd][Gd] | [Ge] ([Gd-] d4) dB | %16
w: |||||
w: * can * dim the|eye; Free- dom, life, and|end- less plea-|sure, In the hap- py|* by * and by.|
w: |||||
w: |||||
 A4- [FA][FB]G[FA] | G4- [DG]2 |] %18
w: ||
w: ||
w: ||
w: ||
V:2
 x2 | (D2 D2 D) x3 | x2 (FA GG) x2 | (G2 G2 x G) x2 | (FFEE F2) x2 | (D2 D2 D) x3 | x2 (FA GG) x2 | %7
 (F2 F2 G) x3 | (GDEE D2) || x2 | G2 F2 x4 | x2 (GG GG) x2 | (G2 G2 x G) x2 | (FFEE F2) x2 | %14
 G2 F2 x4 | x2 (FF GG) x2 | (F2 F2 G) x3 | GDEE x2 |] %18
V:3
 z2 | ([G,B,]2 [G,B,]2 [G,B,])[G,B,][G,B,][G,C] | [G,D] ([G,B,][D,A,][D,C][G,B,][G,B,]) z2 | %3
w: |~ * * ~ ~ ~|~ ~ * * * *|
 [G,B,]2 [G,B,]2 [G,B,][G,B,][G,D][G,B,] | ([D,D][D,D][A,,^C][A,,C] [D,D]2) z2 | %5
w: ~ ~ ~ ~ ~ ~|~ * * * *|
 ([G,B,]2 [G,B,]2 [G,B,])[G,B,][G,B,][G,C] | [G,D] ([G,B,][D,A,][D,C][G,B,][G,B,]) z2 | %7
w: ~ * * ~ ~ ~|~ ~ * * * *|
 [D,C]2 [D,C]2 [D,C][D,D][D,B,][D,C] | (B,B,CC B,2) || z2 | %10
w: ~ ~ ~ ~ ~ ~|~ * * * *||
 ([G,B,]2 [D,A,]2 [G,B,])[G,B,][G,B,][G,B,] | [G,D][G,D][E,E][E,E] [G,D][G,D] z2 | %12
w: ~ * * sweet peace we’ll|share be- yond all mea- sure,|
 [G,D]2 [E,E]2 [G,D][G,B,][G,D][G,B,] | [D,D][D,D][A,,^C][A,,C] [D,D]2 z2 | %14
w: Where no tears ~ ~ ~|~ can dim the eye;|
 [G,B,]2 [D,A,]2 [G,B,][G,B,][G,B,][G,B,] | [G,C] [G,B,][D,A,][D,A,][G,B,][G,B,] z2 | %16
w: Free- dom, life ~ ~ ~|~ ~ end- less plea- sure,|
 [D,C]2 [D,C]2 [D,C][D,D][D,B,][D,C] | (B,B,CC [G,,B,]2) |] %18
w: ||
V:4
 x2 | x8 | x8 | x8 | x8 | x8 | x8 | x8 | G,,6 || x2 | x8 | x8 | x8 | x8 | x8 | x8 | x8 | %17
 G,,4- x2 |] %18

